src/assets/images/icons/language-icon.svg

<svg width="24" height="25" viewBox="0 0 24 25" fill="none" xmlns="http://www.w3.org/2000/svg">
<g clip-path="url(#clip0_386_573)">
<path d="M12 0.5C5.37281 0.5 0 5.87281 0 12.5C0 19.1272 5.37281 24.5 12 24.5C18.6272 24.5 24 19.1272 24 12.5C24 5.87281 18.6272 0.5 12 0.5ZM22.4733 11.75H18.4383C18.4336 11.4041 18.4156 11.0587 18.3844 10.7141C18.25 9.27243 17.892 7.86051 17.3231 6.52906C18.2635 6.35148 19.1918 6.11476 20.1023 5.82031C21.4922 7.50098 22.3212 9.57443 22.4733 11.75ZM8.30062 6.57359C9.27681 6.73977 10.2614 6.85182 11.25 6.90922V11.75H7.06266C7.06703 11.455 7.08266 11.1609 7.10953 10.8678C7.25344 9.22109 7.73156 7.77219 8.30062 6.57359ZM12.75 2.44109C13.6295 3.30897 14.3974 4.28303 15.0361 5.34078C14.5617 5.38672 14.0828 5.41797 13.5994 5.43453C13.3181 5.44484 13.035 5.45 12.75 5.45V2.44109ZM11.25 2.44109V5.40594C10.5238 5.36156 9.795 5.28484 9.06375 5.17578C9.23953 4.89172 9.41484 4.63109 9.58266 4.39531C10.08 3.69638 10.6379 3.04213 11.25 2.44109ZM11.25 13.25V18.0912C10.4062 18.14 9.55859 18.2298 8.70703 18.3608C7.83797 16.6442 7.31281 14.9411 7.13156 13.2514L11.25 13.25ZM11.25 19.5936V22.25C10.6126 21.4595 10.0255 20.6298 9.49219 19.7656C10.0797 19.6872 10.6656 19.6298 11.25 19.5936ZM12.75 19.5467C13.0337 19.5467 13.3169 19.5519 13.5994 19.5622C13.9336 19.5739 14.2655 19.5941 14.595 19.6198C14.0392 20.5366 13.4228 21.4153 12.75 22.25V19.5467ZM13.6533 18.0631C13.353 18.0525 13.0519 18.047 12.75 18.0467V13.25H16.8684C16.6944 14.8809 16.1983 16.5264 15.3802 18.1864C14.8108 18.1264 14.2352 18.0847 13.6533 18.0631ZM12.75 11.75V6.95234C13.0513 6.95234 13.3523 6.94688 13.6533 6.93594C14.3752 6.91 15.0878 6.85359 15.7913 6.76672C16.3869 8.055 16.7587 9.4354 16.8905 10.8486C16.9177 11.1486 16.9333 11.4491 16.9373 11.75H12.75ZM18.9281 4.61047C18.1764 4.82343 17.4137 4.99556 16.6434 5.12609C16.3305 4.55505 15.9832 4.00356 15.6033 3.47469C15.3005 3.05281 15.0019 2.67781 14.7239 2.35578C16.2805 2.77291 17.7194 3.54461 18.9281 4.61047ZM9.27609 2.35672C8.99813 2.68062 8.69953 3.05469 8.39672 3.47563C8.06889 3.93168 7.76504 4.40451 7.48641 4.89219C6.78234 4.74312 6.07703 4.56469 5.37047 4.35687C6.51604 3.42115 7.84729 2.73939 9.27609 2.35672ZM4.13437 5.54422C5.01875 5.83109 5.90266 6.07422 6.78609 6.27359C6.15563 7.67967 5.75977 9.17953 5.61422 10.7136C5.58297 11.0573 5.565 11.4027 5.56031 11.7495H1.52672C1.68737 9.45015 2.60422 7.26805 4.13437 5.54422ZM1.52672 13.25H5.625C5.79469 15.04 6.31109 16.8369 7.17422 18.6406C6.14825 18.8584 5.13449 19.1302 4.13719 19.4548C2.60602 17.7314 1.68816 15.5497 1.52672 13.25ZM5.37047 20.6431C6.21422 20.3931 7.05797 20.1867 7.90172 20.0239C8.45299 20.9746 9.06717 21.8874 9.74016 22.7562C8.13807 22.4046 6.64081 21.6807 5.37047 20.6431ZM14.2603 22.7562C14.9851 21.8215 15.6411 20.8353 16.223 19.8055C17.1362 19.9424 18.0397 20.1375 18.9281 20.3895C17.5982 21.5618 15.9919 22.3762 14.2603 22.7562ZM20.1023 19.1797C19.0683 18.8455 18.0117 18.5858 16.9406 18.4025C17.7353 16.6806 18.2142 14.9631 18.3773 13.25H22.4733C22.3212 15.4256 21.4922 17.499 20.1023 19.1797Z" fill="#27334B"/>
</g>
<defs>
<clipPath id="clip0_386_573">
<rect width="24" height="24" fill="white" transform="translate(0 0.5)"/>
</clipPath>
</defs>
</svg>

<svg xmlns="http://www.w3.org/2000/svg" width="24" height="25" fill="none" viewBox="0 0 24 25"><g clip-path="url(#a)"><path fill="#27334b" d="M12 .5C5.373.5 0 5.873 0 12.5s5.373 12 12 12 12-5.373 12-12-5.373-12-12-12m10.473 11.25h-4.035a14 14 0 0 0-.054-1.036 14 14 0 0 0-1.06-4.185q1.412-.267 2.778-.709a10.45 10.45 0 0 1 2.371 5.93M8.301 6.574q1.465.25 2.949.335v4.841H7.063q.006-.443.047-.882A12.6 12.6 0 0 1 8.3 6.574m4.45-4.134c.88.868 1.647 1.842 2.286 2.9a23 23 0 0 1-2.286.109zm-1.5 0v2.965a25 25 0 0 1-2.186-.23q.265-.427.519-.78A14.6 14.6 0 0 1 11.25 2.44m0 10.809v4.841a27 27 0 0 0-2.543.27q-1.303-2.575-1.575-5.11zm0 6.344v2.656a24 24 0 0 1-1.758-2.484 25 25 0 0 1 1.758-.172m1.5-.047a23 23 0 0 1 1.845.073 24 24 0 0 1-1.845 2.63zm.903-1.484q-.45-.016-.903-.016V13.25h4.118q-.261 2.446-1.488 4.936a26 26 0 0 0-1.727-.123m-.903-6.313V6.952a25 25 0 0 0 3.041-.185 12.5 12.5 0 0 1 1.1 4.082q.04.45.046.901zm6.178-7.14q-1.128.32-2.285.516a16 16 0 0 0-1.92-2.77 10.44 10.44 0 0 1 4.205 2.254M9.276 2.357a16 16 0 0 0-1.79 2.535Q6.43 4.67 5.37 4.357a10.45 10.45 0 0 1 3.906-2M4.134 5.544q1.327.43 2.652.73a14.1 14.1 0 0 0-1.172 4.44q-.046.515-.054 1.035H1.527a10.44 10.44 0 0 1 2.607-6.205M1.527 13.25h4.098q.254 2.685 1.55 5.39-1.54.327-3.038.815a10.44 10.44 0 0 1-2.61-6.205m3.843 7.393q1.266-.375 2.532-.62.827 1.429 1.838 2.733a10.45 10.45 0 0 1-4.37-2.113m8.89 2.113a24.4 24.4 0 0 0 1.963-2.95q1.371.204 2.705.584a10.44 10.44 0 0 1-4.668 2.366m5.842-3.576a23 23 0 0 0-3.161-.777q1.191-2.583 1.436-5.153h4.096a10.45 10.45 0 0 1-2.37 5.93"/></g><defs><clipPath id="a"><path fill="#fff" d="M0 .5h24v24H0z"/></clipPath></defs></svg>
